X:1
T: John's Jig
C:
R:Jig
Q:180
K:D
M:6/8
L:1/16
|:(3ABc|d2A2d2 A2d2A2|d2c2=c2 B4B2|e2B2e2 B2e2B2|e2d2c2 d4(3ABc|
d2A2d2 A2d2A2|d2c2=c2 B4g2|f2e2d2 c2B2A2|B2=c2^c2 d4:|
|:(3ABc|g2B2g2 B2g2B2|f2A2f2 A2f2A2|e2G2e2 G2e2G2|d2e2=f2 ^f4f2|
g2B2g2 B2g2B2|f2A2f2 A2f2A2|1e2G2e2 g2f2e2|d4d2d4:|2e2G2e2 A2B2c2|d6-d4||
